X:112
T:Greencastle Hornpipe, The
R:hornpipe
H:Also in G, #113
D:Beginish
Z:id:hn-hornpipe-112
M:C|
L:1/8
K:D
DE | F2ED F2ED | d2cd B2AG | F2ED F2ED | G2FG EAAG |
F2ED F2ED | d2cd B2AG | FAdA BGEC | D2CE D2 :|
|: de | fedc Bcde | fedc B2cd | edcB ABcd | edcB A2Bc |
dcdA BdAF | GFEF GABc | d2cd BGEC | D2CE D2 :|

